assets/icons/marker_ambulance.svg

<?xml version="1.0" encoding="UTF-8"?>
<svg id="Ebene_1" xmlns="http://www.w3.org/2000/svg" version="1.1" viewBox="0 0 120.8499985 101.5765185">
  <!-- Generator: Adobe Illustrator 30.1.0, SVG Export Plug-In . SVG Version: 2.1.1 Build 136)  -->
  <defs>
    <style>
      .st0 {
        fill: #fff;
      }

      .st1 {
        fill: #ff4612;
      }
    </style>
  </defs>
  <g>
    <path class="st0" d="M73.1093979,2.5c2.8688049,0,5.1745987,2.3050399,5.1748047,5.17383v7.4882698c-.0000992,1.1693993-.3917999,2.2549-1.0537033,3.1270008h1.948204c.6680984,0,1.3042984.1268997,1.8876953.3554001-.4156952-1.6923008.0306015-3.5566006,1.3672028-4.8779011l4.7206955-4.7206993c2.0049057-2.0049405,5.2853012-2.0398002,7.3018036,0h.0009003l.0195999.0195293h-.0009995c1.9862976,2.0068703,2.0144958,5.2722702-.0195007,7.2822704l.0009003.0009003-4.7207031,4.719799c-.9799957.9799004-2.3133011,1.5234013-3.6512985,1.5234013-.6232986-.0001011-1.2661972-.1156998-1.8808975-.3555012.096199.3941002.1493988.8047009.1493988,1.2266006v4.3290997c1.0793991.4687004,2.1035995,1.0792007,3.0391006,1.8290997l.2881012.2383003.077095.0654011.2158051.2157993c.0057983.0058002.0103989.0114002.0136948.0146999.0014038.0014.0031052.0021.0039062.0028992l.0009995.0010014,24.8477936,24.8241978h.0210037l.7210007.6748009c3.0390015,2.8442993,4.7679977,6.8304024,4.7679977,10.9873009v11.2080002c0,5.6502991-4.0469971,10.3583984-9.387001,11.4023972-2.0209961,5.5482025-7.3399963,9.5146027-13.5762939,9.5146027-6.1518021,0-11.4128036-3.8610992-13.493103-9.2782974h-42.1064987c-2.0907021,5.4091949-7.3256035,9.2780991-13.4863014,9.2782974-6.1518002,0-11.4128008-3.8611984-13.4932003-9.2782974h-5.13377c-2.8828301-.000206-5.1736901-2.3425064-5.17383-5.1738052v-47.274498c0-5.7290001,4.6537499-10.3836994,10.3828001-10.3836994h49.0067987v-3.1973c.000103-.309.0286026-.6110001.080101-.9043007-.1847992.0207005-.3707008.0332012-.5565987.0332012-1.271801-.0001011-2.6268005-.4761009-3.6514015-1.5244007v.0009995l-4.7206993-4.719799c-2.0049019-2.0049-2.0397987-5.2863007,0-7.3027l.1923981-.18262c2.0241013-1.8289704,5.1790009-1.7940602,7.1309013.2021494h-.0009995l4.7011986,4.70117c1.2322006,1.2323999,1.7189026,2.9461994,1.4384003,4.5527.1843033-.0198994.3713989-.0301991.5606003-.0301991h1.9432983c-.6694946-.8694-1.0711975-1.9588013-1.0712967-3.1504011v-7.4648695c.0001984-2.8312101,2.2910995-5.1735699,5.1738968-5.17383Z"/>
    <path class="st0" d="M95.3871053,101.2701476c-6.3789062,0-12.2480469-3.6650391-15.1123047-9.2783203h-38.8710938c-2.875,5.6132812-8.7412109,9.2783203-15.1025391,9.2783203-6.3779297,0-12.2480469-3.6650391-15.1123047-9.2783203h-3.5146484C3.4427694,91.9918273.0003866,88.5494445.0003866,84.3179992v-47.2744141C.0003866,29.9400695,5.7796835,24.1602843,12.8831991,24.1602843h44.875c-.65625-.3564453-1.2587891-.8081055-1.7841797-1.3457031l-4.7001953-4.6977539c-1.4570312-1.456543-2.2548828-3.394043-2.2490234-5.4550781.0058594-2.0444336.8085938-3.9599609,2.2597656-5.394043l.2285156-.2172852c3.1064453-2.8105469,7.7597656-2.675293,10.6386719.2670898l3.2841797,3.284668v-2.9282227C65.4359335,3.4425109,68.8783163.0001281,73.1097616.0001281c4.2304688,0,7.6738281,3.4418945,7.6748047,7.6728516v4.2075195l4.6025391-4.6020508c1.4511719-1.4511719,3.3789062-2.2495117,5.4306641-2.2495117.0078125,0,.015625,0,.0224609.0004883,2.0439453.0058594,3.9599609.8081055,5.3945312,2.2592773,1.4492188,1.4638672,2.2373047,3.3803711,2.2392578,5.4150391.0009766,2.0541992-.8017578,3.9799805-2.2597656,5.421875l-4.7099609,4.7104492c-1.2509766,1.2504883-2.9130859,2.0356445-4.6503906,2.2158203v1.1962891c.734375.4145508,1.4326172.8862305,2.0869141,1.409668h.0859375l.6064453.6064453.3261719.2446289.0820312.1625977,24.5263672,24.4853516.7216797.6748047c3.5341797,3.3076172,5.5605469,7.9775391,5.5605469,12.8134766v11.2080078c0,6.2685547-4.1542969,11.75-10.0576172,13.5224609-2.7402344,5.9707031-8.7695312,9.8945312-15.4052734,9.8945312ZM38.0736288,86.9918273h45.5380859l.6162109,1.6035156c1.7626953,4.5908203,6.2470703,7.6748047,11.1591797,7.6748047,5,0,9.5126953-3.1630859,11.2275391-7.8701172l.4833984-1.3271484,1.3857422-.2705078c4.2685547-.8349609,7.3662109-4.5986328,7.3662109-8.9492188v-11.2080078c0-3.4570312-1.4492188-6.796875-3.9755859-9.1621094h-.0488281l-.7519531-.7314453-24.5615234-24.5380859-.3828125-.1914062-.1748047-.3476562-.1552734-.1269531c-.7167969-.5742188-1.5478516-1.0742188-2.4414062-1.4619141l-1.5039062-.6538086v-5.96875c0-.2070312-.0263672-.4213867-.0791016-.6367188l-.3271484-1.3481445-1.2919922-.5053711c-.3115234-.1220703-.6396484-.1835938-.9765625-.1835938h-12.1152344c-.0976562,0-.1943359.0053711-.2890625.015625l-1.9941406.2172852-.3486328,1.9716797c-.0283203.1572266-.0419922.3154297-.0419922.4692383v5.6972656H12.8831991c-4.3466797,0-7.8828125,3.5366211-7.8828125,7.8833008v47.2744141c0,1.4746094,1.1992188,2.6738281,2.6738281,2.6738281h6.8515625l.6162109,1.6035156c1.7626953,4.5908203,6.2470703,7.6748047,11.1591797,7.6748047,4.8964844,0,9.3789062-3.0859375,11.1542969-7.6796875l.6181641-1.5986328ZM83.8285116,19.4058898l1.2851562.5014648c.9628906.3759766,2.1152344.1333008,2.8554688-.6069336l4.7207031-4.7197266c.5087891-.5039062.7841797-1.1660156.7841797-1.8730469-.0009766-.7104492-.2763672-1.3793945-.7744141-1.8833008-.5117188-.5180664-1.1699219-.793457-1.8740234-.7954102h-.0068359c-.7167969,0-1.3896484.2788086-1.8964844.784668l-4.7207031,4.7207031c-.6708984.6640625-.9316406,1.5996094-.7070312,2.5136719l.3339844,1.3579102ZM56.6947225,10.026007c-.6367188,0-1.2734375.2299805-1.7841797.6918945l-.1484375.1411133c-.4609375.456543-.7353516,1.1142578-.7373047,1.8173828-.0019531.7202148.2763672,1.3964844.7841797,1.9047852l4.7207031,4.7192383c.5654297.578125,1.3583984.8618164,2.1660156.7734375l2.0019531-.2211914.3427734-1.9628906c.1503906-.8588867-.1279297-1.7397461-.7441406-2.355957l-4.7001953-4.7006836c-.5263672-.5375977-1.2138672-.8071289-1.9013672-.8071289ZM73.1097616,5.0001281c-1.4746094,0-2.6738281,1.199707-2.6738281,2.6738281v7.4648438c0,.5942383.1904297,1.15625.5517578,1.6245117l2.1484375,2.7890625,2.1025391-2.7734375c.3574219-.4711914.5458984-1.0302734.5458984-1.6166992v-7.4882812c-.0009766-1.4990234-1.1757812-2.6738281-2.6748047-2.6738281Z"/>
  </g>
  <path class="st1" d="M59.5052986,19.3006992c.5116005.5116005,1.2092018.7905998,1.883503.7905998.6744003,0,1.3719978-.2557983,1.8835983-.7905998,1.046402-1.0464001,1.046402-2.7438984,0-3.7670994l-4.7205009-4.7205c-1.0463982-1.04638-2.7439003-1.04638-3.7670975,0-1.046402,1.0464001-1.046402,2.7440004,0,3.7671003l4.7204971,4.720499Z"/>
  <path class="st1" d="M86.0863037,20.0912991c.6743927,0,1.371994-.2557983,1.8835983-.7905998l4.7203979-4.720499c1.0465012-1.0464001,1.0465012-2.7439003,0-3.7671003-1.046402-1.04638-2.7438965-1.04638-3.7669983,0l-4.7205048,4.7205c-1.0463943,1.0464001-1.0463943,2.7439003,0,3.7670994.5116043.5116005,1.2092056.7905998,1.8835068.7905998Z"/>
  <path class="st1" d="M73.111702,17.8127003c1.4648972,0,2.6740952-1.1858997,2.6740952-2.6740999v-7.4644303c0-1.4649801-1.1858978-2.67417-2.6740952-2.67417-1.4883041,0-2.674202,1.1859298-2.674202,2.67417v7.4876304c0,1.4650002,1.1858978,2.6742001,2.674202,2.6742001v-.0233002Z"/>
  <path class="st1" d="M111.8499985,57.483799l-.2549973-.2325974c-.163002-.1395035-.326004-.3023033-.465004-.441803l-24.905098-24.8813992s-.1163025-.1161995-.162796-.1626987c-1.2324066-1.0465012-2.674202-1.7905998-4.2089005-2.2091007v-6.0925007c0-1.4650002-1.1859055-2.674099-2.674202-2.674099h-12.115097c-1.465004,0-2.674202,1.1858997-2.674202,2.674099v5.6972008H12.8830004c-4.3484507,0-7.8830004,3.5345001-7.8830004,7.8829002v47.2745972c0,1.465004,1.1859298,2.674202,2.67417,2.674202h6.97613c1.2090998,5.3018036,5.9761,9.2781982,11.6500006,9.2781982s10.4175987-3.9763947,11.6501007-9.2781982h45.7863998c1.2090988,5.3018036,5.9760971,9.2781982,11.6500015,9.2781982,5.6741943,0,10.4412003-3.9763947,11.6501999-9.3013992,4.8829956-.162796,8.8129959-4.1856995,8.8129959-9.1155014v-11.2081985c0-3.464798-1.4420013-6.7901001-3.9759979-9.1618996h-.0240021ZM26.3003006,90.9225006c-3.6508007,0-6.6040001-2.9532013-6.6040001-6.6041031,0-3.650795,2.9531994-6.6039963,6.6040001-6.6039963,3.6507988,0,6.6040001,2.9532013,6.6040001,6.6039963,0,3.6509018-2.9532013,6.6041031-6.6040001,6.6041031ZM46.7169991,58.3209c0,1.1627007-.9533997,2.1161003-2.1161003,2.1161003h-6.3017006v6.3017006c0,1.1626968-.9533997,2.1160965-2.1160965,2.1160965h-6.2087021c-1.1626987,0-2.1161003-.9533997-2.1161003-2.1160965v-6.3017006h-6.3016987c-1.1627007,0-2.1161003-.9533997-2.1161003-2.1161003v-6.2086983c0-1.1627007.9533997-2.1161003,2.1161003-2.1161003h6.3016987v-6.3017006c0-1.1627007.9534016-2.1161003,2.1161003-2.1161003h6.2087021c1.1626968,0,2.1160965.9533997,2.1160965,2.1161003v6.3017006h6.3017006c1.1627007,0,2.1161003.9533997,2.1161003,2.1161003v6.2086983ZM67.7614975,60.4370003c-1.5114975,0-2.7206955-1.232502-2.7206955-2.7206993v-14.6264992c0-.8372002.6744003-1.5115013,1.5114975-1.5115013h9.7666016c.9533005,0,1.860199.3719978,2.5578003,1.0463982l14.9289017,14.9288025c.7207947.7208977.5114975,1.5347977.371994,1.8602982-.1394958.3255997-.5580978,1.046402-1.5811996,1.046402h-24.8115997l-.0233002-.023201ZM95.3636017,90.9225006c-3.6509018,0-6.6041031-2.9532013-6.6041031-6.6041031,0-3.650795,2.9532013-6.6039963,6.6041031-6.6039963,3.650795,0,6.6044006,2.9532013,6.6044006,6.6039963,0,3.6509018-2.9536057,6.6041031-6.6044006,6.6041031Z"/>
</svg>

<svg width="121" height="102" viewBox="0 0 121 102" fill="none" xmlns="http://www.w3.org/2000/svg">
<path d="M73.1094 2.5C75.9782 2.5 78.284 4.80504 78.2842 7.67383V15.1621C78.2841 16.3315 77.8924 17.417 77.2305 18.2891H79.1787C79.8468 18.2891 80.483 18.416 81.0664 18.6445C80.6507 16.9522 81.097 15.0879 82.4336 13.7666L87.1543 9.0459C89.1592 7.04097 92.4396 7.00609 94.4561 9.0459H94.457L94.4766 9.06543H94.4756C96.4619 11.0723 96.4901 14.3377 94.4561 16.3477L94.457 16.3486L89.7363 21.0684C88.7563 22.0483 87.423 22.5918 86.085 22.5918C85.4617 22.5917 84.8188 22.4761 84.2041 22.2363C84.3003 22.6304 84.3535 23.041 84.3535 23.4629V27.792C85.4329 28.2607 86.4571 28.8712 87.3926 29.6211L87.6807 29.8594L87.7578 29.9248L87.875 30.042C87.8989 30.0659 87.8773 30.0452 87.9014 30.0693C87.9785 30.1465 87.8522 30.0192 87.9287 30.0957C87.9566 30.1236 87.9263 30.0943 87.9531 30.1211C87.959 30.127 87.9693 30.1363 87.9736 30.1406L87.9746 30.1426H87.9756V30.1436H87.9766C87.9774 30.1444 87.9757 30.1437 87.9766 30.1445H87.9775C87.9805 30.1475 87.9765 30.1445 87.9795 30.1475C87.9835 30.1514 87.978 30.145 87.9814 30.1484C87.9861 30.1531 87.9833 30.1513 87.9873 30.1553C87.9889 30.1569 87.9902 30.1572 87.9902 30.1572L87.9922 30.1592L112.84 54.9834H112.861L113.582 55.6582C116.621 58.5025 118.35 62.4886 118.35 66.6455V77.8535C118.35 83.5038 114.303 88.2119 108.963 89.2559C106.942 94.8041 101.623 98.7705 95.3867 98.7705C89.2349 98.7705 83.9739 94.9094 81.8936 89.4922H39.7871C37.6964 94.9014 32.4615 98.7703 26.3008 98.7705C20.149 98.7705 14.888 94.9093 12.8076 89.4922H7.67383C4.791 89.492 2.50014 87.1497 2.5 84.3184V37.0439C2.5 31.3149 7.15375 26.6602 12.8828 26.6602H61.8896V23.4629C61.8897 23.1539 61.9182 22.8519 61.9697 22.5586C61.7849 22.5793 61.599 22.5918 61.4131 22.5918C60.1413 22.5917 58.7863 22.1157 57.7617 21.0674V21.0684L53.041 16.3486C51.0361 14.3437 51.0012 11.0623 53.041 9.0459L53.2334 8.86328C55.2575 7.03431 58.4124 7.06921 60.3643 9.06543H60.3633L65.0645 13.7666C66.2967 14.999 66.7834 16.7128 66.5029 18.3193C66.6872 18.2994 66.8743 18.2891 67.0635 18.2891H69.0068C68.3373 17.4197 67.9356 16.3303 67.9355 15.1387V7.67383C67.9357 4.84262 70.2266 2.50026 73.1094 2.5Z" fill="white" stroke="white" stroke-width="5" stroke-miterlimit="10"/>
<path d="M59.5053 19.3007C60.0169 19.8123 60.7145 20.0913 61.3888 20.0913C62.0632 20.0913 62.7608 19.8355 63.2724 19.3007C64.3188 18.2543 64.3188 16.5568 63.2724 15.5336L58.5519 10.8131C57.5055 9.76672 55.808 9.76672 54.7848 10.8131C53.7384 11.8595 53.7384 13.5571 54.7848 14.5802L59.5053 19.3007Z" fill="#FF4612"/>
<path d="M86.0863 20.0913C86.7607 20.0913 87.4583 19.8355 87.9699 19.3007L92.6903 14.5802C93.7368 13.5338 93.7368 11.8363 92.6903 10.8131C91.6439 9.76672 89.9464 9.76672 88.9233 10.8131L84.2028 15.5336C83.1564 16.58 83.1564 18.2775 84.2028 19.3007C84.7144 19.8123 85.412 20.0913 86.0863 20.0913Z" fill="#FF4612"/>
<path d="M73.1117 17.8127C74.5766 17.8127 75.7858 16.6268 75.7858 15.1386V7.67417C75.7858 6.20919 74.5999 5 73.1117 5C71.6234 5 70.4375 6.18593 70.4375 7.67417V15.1618C70.4375 16.6268 71.6234 17.836 73.1117 17.836V17.8127Z" fill="#FF4612"/>
<path d="M111.85 57.4838L111.595 57.2512C111.432 57.1117 111.269 56.9489 111.13 56.8094L86.2249 31.928C86.2249 31.928 86.1086 31.8118 86.0621 31.7653C84.8297 30.7188 83.388 29.9747 81.8532 29.5562V23.4637C81.8532 21.9987 80.6673 20.7896 79.1791 20.7896H67.0639C65.5989 20.7896 64.3897 21.9755 64.3897 23.4637V29.1609H12.883C8.53455 29.1609 5 32.6954 5 37.0438V84.3184C5 85.7834 6.18593 86.9926 7.67417 86.9926H14.6503C15.8594 92.2944 20.6264 96.2708 26.3003 96.2708C31.9742 96.2708 36.7179 92.2944 37.9504 86.9926H83.7368C84.9459 92.2944 89.7129 96.2708 95.3868 96.2708C101.061 96.2708 105.828 92.2944 107.037 86.9694C111.92 86.8066 115.85 82.7837 115.85 77.8539V66.6457C115.85 63.1809 114.408 59.8556 111.874 57.4838H111.85ZM26.3003 90.9225C22.6495 90.9225 19.6963 87.9693 19.6963 84.3184C19.6963 80.6676 22.6495 77.7144 26.3003 77.7144C29.9511 77.7144 32.9043 80.6676 32.9043 84.3184C32.9043 87.9693 29.9511 90.9225 26.3003 90.9225ZM46.717 58.3209C46.717 59.4836 45.7636 60.437 44.6009 60.437H38.2992V66.7387C38.2992 67.9014 37.3458 68.8548 36.1831 68.8548H29.9744C28.8117 68.8548 27.8583 67.9014 27.8583 66.7387V60.437H21.5566C20.3939 60.437 19.4405 59.4836 19.4405 58.3209V52.1122C19.4405 50.9495 20.3939 49.9961 21.5566 49.9961H27.8583V43.6944C27.8583 42.5317 28.8117 41.5783 29.9744 41.5783H36.1831C37.3458 41.5783 38.2992 42.5317 38.2992 43.6944V49.9961H44.6009C45.7636 49.9961 46.717 50.9495 46.717 52.1122V58.3209ZM67.7615 60.437C66.25 60.437 65.0408 59.2045 65.0408 57.7163V43.0898C65.0408 42.2526 65.7152 41.5783 66.5523 41.5783H76.3189C77.2723 41.5783 78.1791 41.9503 78.8768 42.6247L93.8056 57.5535C94.5264 58.2744 94.3171 59.0883 94.1776 59.4138C94.0381 59.7394 93.6195 60.4602 92.5964 60.4602H67.7848L67.7615 60.437ZM95.3636 90.9225C91.7127 90.9225 88.7595 87.9693 88.7595 84.3184C88.7595 80.6676 91.7127 77.7144 95.3636 77.7144C99.0144 77.7144 101.968 80.6676 101.968 84.3184C101.968 87.9693 99.0144 90.9225 95.3636 90.9225Z" fill="#FF4612"/>
</svg>
